media/img/consult-products.svg

<svg width="49" height="70" viewBox="0 0 49 70" fill="none" xmlns="http://www.w3.org/2000/svg">
<path d="M32.7487 7.36321C32.9409 7.42227 33.1216 7.48285 33.2915 7.54475C34.7167 8.06391 35.4092 8.68684 35.7416 9.3091C36.1696 10.0563 36.2219 10.9742 35.8767 12.2625L34.953 15.7097L34.8454 16.1111L34.4311 16.0788C32.9894 15.9663 31.5208 16.0859 30.0471 16.4779L32.7487 7.36321ZM32.7487 7.36321L33.8224 3.35605C34.0914 3.43708 34.3528 3.52374 34.6066 3.61602C36.7941 4.41157 38.3961 5.61866 39.3259 7.22909C40.4266 9.13564 40.4123 11.3592 39.8827 13.3359L38.959 16.7831L38.8514 17.1845L39.2264 17.3636C40.5344 17.9886 41.7769 18.8353 42.8199 19.8977L42.8235 19.9013C46.1967 23.2677 47.4486 28.1896 46.2144 32.7955C44.8433 37.9126 45.8731 40.9587 46.8739 43.9171L46.8746 43.919C47.856 46.82 48.8078 49.6338 47.5148 54.4595C44.6465 65.1641 33.6152 71.533 22.9105 68.6647C12.2059 65.7964 5.83697 54.7652 8.70527 44.0605C9.99832 39.2348 12.2295 37.274 14.5299 35.2523L14.5314 35.251C16.8773 33.1893 19.2923 31.0662 20.6634 25.9491C21.8975 21.3433 25.4424 17.7069 30.0468 16.478L32.7487 7.36321Z" fill="#575843" stroke="#575843"/>
<path d="M7.88695 43.2773L1.31107 40.8839C2.61959 36.3774 4.78366 34.4755 7.0127 32.5166L7.01421 32.5153C9.27826 30.5256 11.6066 28.4786 12.9989 23.7382L19.5748 26.1317C18.2662 30.6382 16.1022 32.54 13.8731 34.4989L13.8716 34.5003C11.6076 36.49 9.27923 38.537 7.88695 43.2773Z" fill="#575843" stroke="#575843" stroke-linejoin="round"/>
<path d="M19.8484 25.1658L13.2718 22.7722C14.5935 18.4251 17.995 15.0082 22.3792 13.782L28.3821 15.9669C24.2827 17.538 21.1488 20.9449 19.8484 25.1658Z" fill="#575843" stroke="#575843" stroke-linejoin="round"/>
<path d="M31.7969 7.05162L25.2226 4.65878L26.2951 0.656471L32.8693 3.04931L31.7969 7.05162Z" fill="#575843" stroke="#575843" stroke-linejoin="round"/>
<mask id="path-5-inside-1_1045_16234" fill="white">
<path d="M27.2598 0.409805C26.8426 0.258107 26.4068 0.121552 25.9531 0L33.4707 2.73616C33.9243 2.85771 34.3602 2.99427 34.7773 3.14597L27.2598 0.409805Z"/>
</mask>
<path d="M27.2598 0.409805C26.8426 0.258107 26.4068 0.121552 25.9531 0L33.4707 2.73616C33.9243 2.85771 34.3602 2.99427 34.7773 3.14597L27.2598 0.409805Z" fill="#575843"/>
<path d="M25.9531 0L26.2119 -0.965926C25.6949 -1.10448 25.1604 -0.81125 24.9994 -0.300706C24.8384 0.209839 25.1081 0.756602 25.6111 0.939693L25.9531 0ZM27.2598 0.409805L27.6018 -0.529888L27.6015 -0.529978L27.2598 0.409805ZM34.7773 3.14597L34.4355 4.08575C34.9545 4.27449 35.5282 4.00682 35.717 3.48786C35.9059 2.96891 35.6383 2.39515 35.1193 2.20627L34.7773 3.14597ZM33.4707 2.73616L33.1286 3.67585C33.156 3.6858 33.1837 3.69456 33.2118 3.70209L33.4707 2.73616ZM25.6943 0.965926C26.1218 1.08048 26.5299 1.20846 26.918 1.34959L27.6015 -0.529978C27.1553 -0.692244 26.6917 -0.83738 26.2119 -0.965926L25.6943 0.965926ZM26.9177 1.3495L34.4353 4.08566L35.1193 2.20627L27.6018 -0.529888L26.9177 1.3495ZM35.1191 2.20618C34.6729 2.04392 34.2092 1.89878 33.7295 1.77024L33.2118 3.70209C33.6394 3.81665 34.0475 3.94462 34.4355 4.08575L35.1191 2.20618ZM33.8127 1.79647L26.2951 -0.939693L25.6111 0.939693L33.1286 3.67585L33.8127 1.79647Z" fill="#575843" mask="url(#path-5-inside-1_1045_16234)"/>
<mask id="path-7-inside-2_1045_16234" fill="white">
<path d="M24.6211 4.97266C24.9874 5.0708 25.3131 5.17338 25.6029 5.27894L33.1155 8.01332C32.8269 7.90838 32.5028 7.8064 32.1386 7.70882L24.6211 4.97266Z"/>
</mask>
<path d="M24.6211 4.97266C24.9874 5.0708 25.3131 5.17338 25.6029 5.27894L33.1155 8.01332C32.8269 7.90838 32.5028 7.8064 32.1386 7.70882L24.6211 4.97266Z" fill="#575843"/>
<path d="M32.9447 8.48323C32.9462 8.48378 32.9477 8.48433 32.9493 8.48489L33.2916 7.54532C33.2899 7.54469 33.2881 7.54405 33.2864 7.54341L32.9447 8.48323ZM25.6029 5.27894L25.2606 6.21854L25.2609 6.21864L25.6029 5.27894ZM24.6211 4.97266L24.8799 4.00673C24.3628 3.86818 23.8284 4.16141 23.6674 4.67195C23.5064 5.1825 23.776 5.72926 24.2791 5.91235L24.6211 4.97266ZM32.1386 7.70882L31.7966 8.64851C31.824 8.65846 31.8517 8.66721 31.8798 8.67474L32.1386 7.70882ZM33.1155 8.01332L32.7738 8.95311C33.2927 9.14184 33.8665 8.87416 34.0553 8.35521C34.2441 7.83626 33.9765 7.2625 33.4575 7.07363L33.1155 8.01332ZM25.9452 4.33935C25.6249 4.22268 25.2711 4.11154 24.8799 4.00673L24.3623 5.93858C24.7037 6.03006 25.0013 6.12407 25.2606 6.21854L25.9452 4.33935ZM24.2791 5.91235L31.7966 8.64851L32.4807 6.76912L24.9631 4.03296L24.2791 5.91235ZM31.8798 8.67474C32.2193 8.7657 32.5154 8.85917 32.7738 8.95311L33.4573 7.07353C33.1384 6.95759 32.7864 6.84711 32.3975 6.74289L31.8798 8.67474ZM33.4575 7.07363L25.9449 4.33925L25.2609 6.21864L32.7735 8.95301L33.4575 7.07363Z" fill="#575843" mask="url(#path-7-inside-2_1045_16234)"/>
<path d="M7.62535 44.2463C5.60273 52.4973 8.76353 60.868 15.0756 65.8412C4.73783 62.8917 -1.44401 52.2845 1.05337 41.8543L7.62535 44.2463Z" fill="#575843" stroke="#575843" stroke-linejoin="round"/>
<mask id="path-10-inside-3_1045_16234" fill="white">
<path d="M25.6025 5.27734C26.965 5.77367 27.5333 6.33608 27.7861 6.81394L35.3037 9.55011C35.0509 9.07224 34.4825 8.50983 33.1201 8.0135L25.6025 5.27734Z"/>
</mask>
<path d="M25.6025 5.27734C26.965 5.77367 27.5333 6.33608 27.7861 6.81394L35.3037 9.55011C35.0509 9.07224 34.4825 8.50983 33.1201 8.0135L25.6025 5.27734Z" fill="#575843"/>
<path d="M27.7861 6.81394L26.9022 7.28155C27.0181 7.50063 27.2112 7.66887 27.4441 7.75364L27.7861 6.81394ZM25.6025 5.27734L25.9446 4.33765C25.4256 4.14878 24.8518 4.41629 24.6629 4.93519C24.4739 5.45409 24.7414 6.02792 25.2603 6.21694L25.6025 5.27734ZM33.1201 8.0135L33.4624 7.07391L33.4621 7.07381L33.1201 8.0135ZM35.3037 9.55011L34.9616 10.4898C35.3503 10.6313 35.786 10.5188 36.0577 10.207C36.3294 9.89508 36.381 9.44812 36.1876 9.0825L35.3037 9.55011ZM28.6701 6.34634C28.2616 5.5742 27.4452 4.88433 25.9448 4.33775L25.2603 6.21694C26.4848 6.66301 26.8051 7.09796 26.9022 7.28155L28.6701 6.34634ZM25.2605 6.21704L32.7781 8.9532L33.4621 7.07381L25.9446 4.33765L25.2605 6.21704ZM32.7778 8.9531C34.0023 9.39917 34.3226 9.83412 34.4197 10.0177L36.1876 9.0825C35.7791 8.31036 34.9628 7.62049 33.4624 7.07391L32.7778 8.9531ZM35.6457 8.61041L28.1281 5.87425L27.4441 7.75364L34.9616 10.4898L35.6457 8.61041Z" fill="#575843" mask="url(#path-10-inside-3_1045_16234)"/>
<path d="M31.7777 15.133C31.1678 15.2041 30.5557 15.3164 29.9427 15.4722L24.2606 13.4041C25.1287 13.2949 25.9919 13.2757 26.8459 13.338L31.7777 15.133Z" fill="#575843" stroke="#575843" stroke-linejoin="round"/>
<path d="M34.6064 3.61621C36.1628 4.18224 37.4229 4.9566 38.3552 5.93634L32.58 3.83432C32.2882 3.35605 31.9465 2.91389 31.5587 2.50691L34.6063 3.61616L34.6064 3.61621Z" fill="#575843" stroke="#575843" stroke-linejoin="round"/>
<path d="M35.0322 11.469L28.4657 9.07896C28.58 8.52994 28.612 8.05316 28.5638 7.6296L34.9486 9.95346C35.1009 10.2958 35.1625 10.7561 35.0322 11.469Z" fill="#575843" stroke="#575843" stroke-linejoin="round"/>
<path d="M34.128 14.9234L27.5537 12.5305L28.2176 10.053L34.7918 12.4458L34.128 14.9234Z" fill="#575843" stroke="#575843" stroke-linejoin="round"/>
<path d="M40.011 12.8034L33.4412 10.4122C33.82 8.7447 33.8615 6.87958 33.2081 5.12619L39.4131 7.38463C40.333 9.085 40.3941 11.0211 40.011 12.8034Z" fill="#575843" stroke="#575843" stroke-linejoin="round"/>
<path d="M39.1006 16.2554L32.5263 13.8626L33.1902 11.385L39.7645 13.7778L39.1006 16.2554Z" fill="#575843" stroke="#575843" stroke-linejoin="round"/>
<path d="M40.4341 18.0164L35.9358 16.3792C35.8199 16.2633 35.7019 16.1499 35.582 16.039L39.2484 17.3734C39.6512 17.5668 40.0477 17.7811 40.4341 18.0164Z" fill="#575843" stroke="#575843" stroke-linejoin="round"/>
<path d="M46.3454 32.264L39.7747 29.8724C40.7538 25.7024 39.8576 21.3253 37.3056 17.9419L42.9008 19.9784C46.0878 23.2126 47.3415 27.8494 46.3454 32.264Z" fill="#575843" stroke="#575843" stroke-linejoin="round"/>
<path d="M22.9316 68.6711L20.0138 67.6092C29.3736 67.8687 38.0643 61.8206 40.8155 52.5076L47.3914 54.9011C44.3441 65.3321 33.4819 71.4861 22.9316 68.6711Z" fill="#575843" stroke="#575843" stroke-linejoin="round"/>
<path d="M47.6496 53.9308L41.0774 51.5388C42.274 46.6875 41.2751 43.733 40.3036 40.8612L40.303 40.8593C39.358 38.066 38.4404 35.3537 39.5279 30.8482L46.1001 33.2403C44.9035 38.0916 45.9024 41.0461 46.8739 43.9178L46.8745 43.9198C47.8195 46.713 48.737 49.4254 47.6496 53.9308Z" fill="#575843" stroke="#575843" stroke-linejoin="round"/>
<path d="M40.4802 51.8526C37.5404 62.824 26.2349 69.3512 15.2635 66.4114C4.29216 63.4716 -2.23504 52.1662 0.704733 41.1948C3.36918 31.2509 9.99842 33.0272 12.6629 23.0833C13.9418 18.3103 17.6179 14.5348 22.4006 13.2585C23.9308 12.8514 25.4561 12.7272 26.9525 12.8439L27.8761 9.39674C28.2047 8.17033 28.1261 7.4032 27.7864 6.81482C27.4798 6.23531 26.7092 5.53146 24.621 4.97193L25.9532 0C28.8701 0.781572 31.0523 2.1834 32.2413 4.24276C33.4303 6.30212 33.3987 8.6739 32.8481 10.729L31.9244 14.1762C33.2786 14.8232 34.5707 15.7023 35.6591 16.8111C39.1629 20.3078 40.4588 25.4155 39.1798 30.1885C36.5154 40.1324 43.1446 41.9087 40.4802 51.8526Z" fill="#EBEBEA"/>
</svg>

<svg width="49" height="70" viewBox="0 0 49 70" fill="none" xmlns="http://www.w3.org/2000/svg"><path d="M32.749 7.363c.192.06.373.12.542.182 1.426.519 2.118 1.142 2.45 1.764.429.747.48 1.665.136 2.954l-.924 3.447-.108.401-.414-.032a13.023 13.023 0 00-4.384.399l2.702-9.115zm0 0l1.073-4.007c.27.081.53.168.785.26 2.187.796 3.79 2.003 4.719 3.613 1.1 1.907 1.086 4.13.557 6.107l-.924 3.447-.108.401.375.18c1.308.625 2.55 1.471 3.594 2.534l.004.003c3.373 3.367 4.625 8.289 3.39 12.894-1.37 5.118-.34 8.164.66 11.122v.002c.982 2.901 1.934 5.715.64 10.54-2.867 10.705-13.899 17.074-24.604 14.206-10.704-2.869-17.073-13.9-14.205-24.605 1.293-4.825 3.524-6.786 5.825-8.808l.001-.001c2.346-2.062 4.761-4.185 6.132-9.302 1.235-4.606 4.78-8.242 9.384-9.471l2.702-9.115z" fill="#575843" stroke="#575843"/><path d="M7.887 43.277l-6.576-2.393c1.309-4.507 3.473-6.409 5.702-8.367l.001-.002c2.264-1.99 4.593-4.036 5.985-8.777l6.576 2.394c-1.309 4.506-3.473 6.408-5.702 8.367l-.001.001c-2.264 1.99-4.593 4.037-5.985 8.777zm11.961-18.111l-6.576-2.394c1.322-4.347 4.723-7.764 9.107-8.99l6.003 2.185c-4.1 1.571-7.233 4.978-8.534 9.199zM31.797 7.052l-6.574-2.393L26.295.656 32.87 3.05l-1.072 4.003z" fill="#575843" stroke="#575843" stroke-linejoin="round"/><mask id="a" fill="#fff"><path d="M27.26.41A15.756 15.756 0 0025.953 0l7.518 2.736c.453.122.89.258 1.306.41L27.26.41z"/></mask><path d="M27.26.41A15.756 15.756 0 0025.953 0l7.518 2.736c.453.122.89.258 1.306.41L27.26.41z" fill="#575843"/><path d="M25.953 0l.259-.966a1 1 0 00-.6 1.906l.341-.94zm1.307.41l.342-.94-.342.94zm7.517 2.736l-.342.94a1 1 0 00.684-1.88l-.342.94zm-1.306-.41l-.342.94c.027.01.055.019.083.026l.259-.966zM25.694.966c.428.114.836.242 1.224.384l.684-1.88c-.447-.162-.91-.307-1.39-.436L25.694.966zm1.224.383l7.517 2.737.684-1.88L27.602-.53l-.684 1.88zm8.201.857c-.446-.162-.91-.307-1.39-.436l-.517 1.932c.427.115.835.243 1.223.384l.684-1.88zm-1.306-.41L26.295-.94 25.611.94l7.518 2.736.684-1.88z" fill="#575843" mask="url(#a)"/><mask id="b" fill="#fff"><path d="M24.621 4.973c.366.098.692.2.982.306l7.512 2.734a11.796 11.796 0 00-.976-.304L24.62 4.973z"/></mask><path d="M24.621 4.973c.366.098.692.2.982.306l7.512 2.734a11.796 11.796 0 00-.976-.304L24.62 4.973z" fill="#575843"/><path d="M32.945 8.483l.004.002.343-.94c-.002 0-.004 0-.006-.002l-.341.94zM25.603 5.28l-.342.94.342-.94zm-.982-.306l.259-.966a1 1 0 00-.6 1.905l.341-.94zm7.518 2.736l-.342.94c.027.01.055.018.083.026l.259-.966zm.976.304l-.341.94a1 1 0 00.684-1.88l-.343.94zm-7.17-3.674c-.32-.116-.674-.227-1.065-.332l-.518 1.932c.342.091.64.185.899.28l.684-1.88zM24.28 5.912l7.518 2.737.684-1.88-7.518-2.736-.684 1.88zm7.6 2.763c.34.09.636.184.895.278l.683-1.88a12.98 12.98 0 00-1.06-.33l-.517 1.932zm1.579-1.601l-7.513-2.735-.684 1.88 7.512 2.734.684-1.88z" fill="#575843" mask="url(#b)"/><path d="M7.625 44.246c-2.022 8.251 1.139 16.622 7.45 21.595C4.739 62.891-1.443 52.285 1.054 41.854l6.572 2.392z" fill="#575843" stroke="#575843" stroke-linejoin="round"/><mask id="c" fill="#fff"><path d="M25.602 5.277c1.363.497 1.931 1.06 2.184 1.537l7.518 2.736c-.253-.478-.822-1.04-2.184-1.537l-7.517-2.736z"/></mask><path d="M25.602 5.277c1.363.497 1.931 1.06 2.184 1.537l7.518 2.736c-.253-.478-.822-1.04-2.184-1.537l-7.517-2.736z" fill="#575843"/><path d="M27.786 6.814l-.884.468a1 1 0 00.542.472l.342-.94zm-2.184-1.537l.343-.94a1 1 0 00-.685 1.88l.342-.94zm7.518 2.737l.342-.94-.342.94zm2.184 1.536l-.342.94a1 1 0 001.226-1.408l-.884.468zM28.67 6.346c-.408-.772-1.225-1.462-2.725-2.008l-.685 1.879c1.225.446 1.545.881 1.642 1.065l1.768-.936zm-3.41-.129l7.518 2.736.684-1.88-7.517-2.735-.684 1.879zm7.518 2.736c1.224.446 1.545.881 1.642 1.065l1.768-.936c-.409-.772-1.225-1.462-2.726-2.008l-.684 1.88zm2.868-.343l-7.518-2.736-.684 1.88 7.518 2.736.684-1.88z" fill="#575843" mask="url(#c)"/><path d="M31.778 15.133c-.61.071-1.222.183-1.835.34l-5.682-2.069a13.02 13.02 0 012.585-.066l4.932 1.795zm2.828-11.517c1.557.566 2.817 1.34 3.75 2.32L32.58 3.834a7.843 7.843 0 00-1.021-1.327l3.047 1.11h0zm.426 7.853l-6.566-2.39c.114-.55.146-1.026.098-1.45l6.385 2.324c.152.343.214.803.083 1.516zm-.904 3.454l-6.574-2.393.664-2.477 6.574 2.393-.664 2.477z" fill="#575843" stroke="#575843" stroke-linejoin="round"/><path d="M40.011 12.803l-6.57-2.39c.379-1.668.42-3.533-.233-5.287l6.205 2.259c.92 1.7.981 3.636.598 5.418zm-.911 3.452l-6.574-2.392.664-2.478 6.575 2.393-.664 2.477zm1.334 1.761l-4.498-1.637c-.116-.116-.234-.23-.354-.34l3.666 1.334c.403.194.8.408 1.186.643zm5.911 14.248l-6.57-2.392c.979-4.17.083-8.547-2.47-11.93l5.596 2.036c3.187 3.235 4.44 7.871 3.444 12.286zM22.932 68.671l-2.918-1.062c9.36.26 18.05-5.788 20.802-15.101L47.39 54.9c-3.047 10.431-13.91 16.585-24.46 13.77zM47.65 53.93l-6.573-2.391c1.197-4.852.198-7.806-.773-10.678l-.001-.002c-.945-2.793-1.863-5.505-.775-10.01L46.1 33.24c-1.197 4.852-.198 7.806.774 10.678v.002c.945 2.793 1.863 5.505.776 10.01z" fill="#575843" stroke="#575843" stroke-linejoin="round"/><path d="M40.48 51.853C37.54 62.824 26.235 69.35 15.264 66.41 4.292 63.471-2.235 52.166.704 41.195c2.665-9.944 9.294-8.168 11.959-18.112 1.279-4.773 4.955-8.548 9.738-9.824a13.524 13.524 0 014.552-.415l.923-3.447c.329-1.227.25-1.994-.09-2.582-.306-.58-1.077-1.284-3.165-1.843L25.953 0c2.917.782 5.1 2.183 6.288 4.243 1.19 2.06 1.158 4.43.607 6.486l-.924 3.447c1.355.647 2.647 1.526 3.735 2.635 3.504 3.497 4.8 8.605 3.52 13.378-2.664 9.943 3.966 11.72 1.301 21.664z" fill="#EBEBEA"/></svg>
